app/style/icons/privacyDisabled.svg

<svg viewBox="0 0 150 150" xmlns="http://www.w3.org/2000/svg"><path d="m155.625 199.375h-130.687a.937.937 0 1 1 0-1.875h130.687a.937.937 0 1 1 0 1.875z" fill="#2f74fb" transform="translate(-15 -123.438)"/><path d="m155.625 199.375h-130.687a.937.937 0 1 1 0-1.875h130.687a.937.937 0 1 1 0 1.875z" fill="#2f74fb" transform="translate(-15 -123.438)"/><path d="m.937 66.562h16.875v16.875h-16.875z" fill="#fff"/><path d="m16.875 176.875v15h-15v-15zm1.875-1.875h-18.75v18.75h18.75z" fill="#2f74fb" transform="translate(0 -109.375)"/><path d="m132.187 66.562h16.875v16.875h-16.875z" fill="#fff"/><g fill="#2f74fb"><path d="m366.875 176.875v15h-15v-15zm1.875-1.875h-18.75v18.75h18.75z" transform="translate(-218.75 -109.375)"/><g transform="translate(-123.438 -14.063)"><path d="m198.438 155.062a.928.928 0 0 1 -.937-.937v-130.687a.937.937 0 1 1 1.875 0v130.687a.928.928 0 0 1 -.938.937z"/><path d="m198.438 155.062a.928.928 0 0 1 -.937-.937v-130.687a.937.937 0 1 1 1.875 0v130.687a.928.928 0 0 1 -.938.937z"/></g></g><path d="m66.562 132.187h16.875v16.875h-16.875z" fill="#fff"/><path d="m191.875 351.875v15h-15v-15zm1.875-1.875h-18.75v18.75h18.75z" fill="#2f74fb" transform="translate(-109.375 -218.75)"/><path d="m66.562.937h16.875v16.875h-16.875z" fill="#fff"/><g fill="#2f74fb"><path d="m191.875 1.875v15h-15v-15zm1.875-1.875h-18.75v18.75h18.75z" transform="translate(-109.375)"/><path d="m75.706 168.044a.963.963 0 0 1 -.675-.262.906.906 0 0 1 0-1.312l92.437-92.437a.928.928 0 0 1 1.313 1.313l-92.4 92.4a.939.939 0 0 1 -.675.298z" transform="translate(-46.719 -46.094)"/><path d="m75.706 168.044a.963.963 0 0 1 -.675-.262.906.906 0 0 1 0-1.312l92.437-92.437a.928.928 0 0 1 1.313 1.313l-92.4 92.4a.939.939 0 0 1 -.675.298z" transform="translate(-46.719 -46.094)"/></g><path d="m19.687 113.437h16.875v16.875h-16.875z" fill="#fff"/><path d="m66.875 301.875v15h-15v-15zm1.875-1.875h-18.75v18.75h18.75z" fill="#2f74fb" transform="translate(-31.25 -187.5)"/><path d="m113.437 19.687h16.875v16.875h-16.875z" fill="#fff"/><path d="m316.875 51.875v15h-15v-15zm1.875-1.875h-18.75v18.75h18.75z" fill="#2f74fb" transform="translate(-187.5 -31.25)"/><path d="m167.106 168.044a.963.963 0 0 1 -.675-.262l-92.4-92.437a.928.928 0 0 1 1.313-1.312l92.4 92.4a.906.906 0 0 1 0 1.313.924.924 0 0 1 -.638.298z" fill="#2f74fb" transform="translate(-46.094 -46.094)"/><path d="m167.106 168.044a.963.963 0 0 1 -.675-.262l-92.4-92.437a.928.928 0 0 1 1.313-1.312l92.4 92.4a.906.906 0 0 1 0 1.313.924.924 0 0 1 -.638.298z" fill="#2f74fb" transform="translate(-46.094 -46.094)"/><path d="m113.437 113.437h16.875v16.875h-16.875z" fill="#fff"/><path d="m316.875 301.875v15h-15v-15zm1.875-1.875h-18.75v18.75h18.75z" fill="#2f74fb" transform="translate(-187.5 -187.5)"/><path d="m19.687 19.687h16.875v16.875h-16.875z" fill="#fff"/><path d="m66.875 51.875v15h-15v-15zm1.875-1.875h-18.75v18.75h18.75z" fill="#2f74fb" transform="translate(-31.25 -31.25)"/><circle cx="75" cy="75" fill="#2f74fb" r="37.5"/><circle cx="75" cy="75" fill="#70cbff" r="37.5"/><g fill="#2f74fb"><path d="m137.5 228.875a37.515 37.515 0 0 1 -37.425-35.175c-.037.787-.075 1.538-.075 2.325a37.5 37.5 0 0 0 75 0c0-.787-.038-1.575-.075-2.325a37.515 37.515 0 0 1 -37.425 35.175z" transform="translate(-62.5 -121.063)"/><path d="m157.985 213.472a29.053 29.053 0 0 1 -25.2-14.512.933.933 0 1 1 1.612-.938 27.176 27.176 0 0 0 47.063 0 .933.933 0 0 1 1.613.938 28.963 28.963 0 0 1 -25.087 14.512z" transform="translate(-82.91 -123.473)"/><path d="m266.69 201.028a1.594 1.594 0 0 1 -.412-.075l-3.378-1.613a.931.931 0 1 1 .787-1.687l3.375 1.613a.946.946 0 0 1 .45 1.238.9.9 0 0 1 -.822.524z" transform="translate(-163.978 -123.478)"/><path d="m244.916 225.478a.924.924 0 0 1 -.712-.337l-2.362-2.887a.931.931 0 1 1 1.425-1.2l2.363 2.887a.942.942 0 0 1 -.113 1.313.919.919 0 0 1 -.601.224z" transform="translate(-151.016 -137.953)"/><path d="m214.851 238.751a.891.891 0 0 1 -.9-.75l-.788-3.712a.968.968 0 0 1 .712-1.125.949.949 0 0 1 1.125.712l.788 3.713a.968.968 0 0 1 -.712 1.125.476.476 0 0 1 -.225.037z" transform="translate(-133.214 -145.714)"/><path d="m124.505 201.018a1 1 0 0 1 -.863-.525.914.914 0 0 1 .45-1.238l3.375-1.613a.931.931 0 0 1 .787 1.688l-3.375 1.612a.562.562 0 0 1 -.374.076z" transform="translate(-77.217 -123.467)"/><path d="m148.033 225.458a.938.938 0 0 1 -.713-1.538l2.363-2.887a.931.931 0 1 1 1.425 1.2l-2.363 2.887a.824.824 0 0 1 -.712.338z" transform="translate(-91.932 -137.932)"/><path d="m180.764 238.751a.281.281 0 0 1 -.187-.038.949.949 0 0 1 -.712-1.125l.788-3.713a.942.942 0 0 1 1.837.413l-.79 3.712a.96.96 0 0 1 -.936.751z" transform="translate(-112.401 -145.714)"/><path d="m189.33 165.419a1.155 1.155 0 0 1 -.488-.112c-8.213-4.8-18.937-4.838-26.7 0a.926.926 0 1 1 -.975-1.575c8.325-5.175 19.875-5.175 28.65 0a.925.925 0 0 1 .338 1.275 1 1 0 0 1 -.825.412z" transform="translate(-100.455 -99.906)"/></g></svg>

<svg xmlns="http://www.w3.org/2000/svg" viewBox="0 0 150 150"><defs><style>.a{fill:#2f74fb;}.b{fill:#fff;}.c{fill:#70cbff;}</style></defs><g transform="translate(-515.417 -329)"><g transform="translate(515.417 329)"><g transform="translate(9 74.062)"><path class="a" d="M155.625,199.375H24.938a.937.937,0,1,1,0-1.875H155.625a.937.937,0,1,1,0,1.875Z" transform="translate(-24 -197.5)"/></g><g transform="translate(9 74.062)"><path class="a" d="M155.625,199.375H24.938a.937.937,0,1,1,0-1.875H155.625a.937.937,0,1,1,0,1.875Z" transform="translate(-24 -197.5)"/></g><g transform="translate(0.937 66.562)"><rect class="b" width="16.875" height="16.875"/></g><g transform="translate(0 65.625)"><path class="a" d="M16.875,176.875v15h-15v-15h15M18.75,175H0v18.75H18.75Z" transform="translate(0 -175)"/></g><g transform="translate(132.187 66.562)"><rect class="b" width="16.875" height="16.875"/></g><g transform="translate(131.25 65.625)"><path class="a" d="M366.875,176.875v15h-15v-15h15M368.75,175H350v18.75h18.75Z" transform="translate(-350 -175)"/></g><g transform="translate(74.062 8.437)"><path class="a" d="M198.438,155.062a.928.928,0,0,1-.937-.937V23.438a.937.937,0,1,1,1.875,0V154.125A.928.928,0,0,1,198.438,155.062Z" transform="translate(-197.5 -22.5)"/></g><g transform="translate(74.062 8.437)"><path class="a" d="M198.438,155.062a.928.928,0,0,1-.937-.937V23.438a.937.937,0,1,1,1.875,0V154.125A.928.928,0,0,1,198.438,155.062Z" transform="translate(-197.5 -22.5)"/></g><g transform="translate(66.562 132.187)"><rect class="b" width="16.875" height="16.875"/></g><g transform="translate(65.625 131.25)"><path class="a" d="M191.875,351.875v15h-15v-15h15M193.75,350H175v18.75h18.75Z" transform="translate(-175 -350)"/></g><g transform="translate(66.562 0.937)"><rect class="b" width="16.875" height="16.875"/></g><g transform="translate(65.625)"><path class="a" d="M191.875,1.875v15h-15v-15h15M193.75,0H175V18.75h18.75Z" transform="translate(-175)"/></g><g transform="translate(28.031 27.656)"><path class="a" d="M75.706,168.044a.963.963,0,0,1-.675-.262.906.906,0,0,1,0-1.312l92.437-92.437a.928.928,0,0,1,1.313,1.313l-92.4,92.4A.939.939,0,0,1,75.706,168.044Z" transform="translate(-74.75 -73.75)"/></g><g transform="translate(28.031 27.656)"><path class="a" d="M75.706,168.044a.963.963,0,0,1-.675-.262.906.906,0,0,1,0-1.312l92.437-92.437a.928.928,0,0,1,1.313,1.313l-92.4,92.4A.939.939,0,0,1,75.706,168.044Z" transform="translate(-74.75 -73.75)"/></g><g transform="translate(19.687 113.437)"><rect class="b" width="16.875" height="16.875"/></g><g transform="translate(18.75 112.5)"><path class="a" d="M66.875,301.875v15h-15v-15h15M68.75,300H50v18.75H68.75Z" transform="translate(-50 -300)"/></g><g transform="translate(113.437 19.687)"><rect class="b" width="16.875" height="16.875"/></g><g transform="translate(112.5 18.75)"><path class="a" d="M316.875,51.875v15h-15v-15h15M318.75,50H300V68.75h18.75Z" transform="translate(-300 -50)"/></g><g transform="translate(27.656 27.656)"><path class="a" d="M167.106,168.044a.963.963,0,0,1-.675-.262l-92.4-92.437a.928.928,0,0,1,1.313-1.312l92.4,92.4a.906.906,0,0,1,0,1.313A.924.924,0,0,1,167.106,168.044Z" transform="translate(-73.75 -73.75)"/></g><g transform="translate(27.656 27.656)"><path class="a" d="M167.106,168.044a.963.963,0,0,1-.675-.262l-92.4-92.437a.928.928,0,0,1,1.313-1.312l92.4,92.4a.906.906,0,0,1,0,1.313A.924.924,0,0,1,167.106,168.044Z" transform="translate(-73.75 -73.75)"/></g><g transform="translate(113.437 113.437)"><rect class="b" width="16.875" height="16.875"/></g><g transform="translate(112.5 112.5)"><path class="a" d="M316.875,301.875v15h-15v-15h15M318.75,300H300v18.75h18.75Z" transform="translate(-300 -300)"/></g><g transform="translate(19.687 19.687)"><rect class="b" width="16.875" height="16.875"/></g><g transform="translate(18.75 18.75)"><path class="a" d="M66.875,51.875v15h-15v-15h15M68.75,50H50V68.75H68.75Z" transform="translate(-50 -50)"/></g><g transform="translate(37.5 37.5)"><circle class="a" cx="37.5" cy="37.5" r="37.5"/></g><g transform="translate(37.5 37.5)"><circle class="c" cx="37.5" cy="37.5" r="37.5"/></g><g transform="translate(37.5 72.637)"><path class="a" d="M137.5,228.875A37.515,37.515,0,0,1,100.075,193.7c-.037.787-.075,1.538-.075,2.325a37.5,37.5,0,0,0,75,0c0-.787-.038-1.575-.075-2.325A37.515,37.515,0,0,1,137.5,228.875Z" transform="translate(-100 -193.7)"/></g><g transform="translate(49.746 74.083)"><path class="a" d="M157.985,213.472a29.053,29.053,0,0,1-25.2-14.512.933.933,0,1,1,1.612-.938,27.176,27.176,0,0,0,47.063,0,.933.933,0,0,1,1.613.938,28.963,28.963,0,0,1-25.087,14.512Z" transform="translate(-132.656 -197.556)"/></g><g transform="translate(80.85 88.387)"><path class="a" d="M215.6,235.7" transform="translate(-215.6 -235.7)"/></g><g transform="translate(98.387 74.087)"><path class="a" d="M266.69,201.028a1.594,1.594,0,0,1-.412-.075L262.9,199.34a.931.931,0,1,1,.787-1.687l3.375,1.613a.946.946,0,0,1,.45,1.238A.9.9,0,0,1,266.69,201.028Z" transform="translate(-262.365 -197.565)"/></g><g transform="translate(90.609 82.772)"><path class="a" d="M244.916,225.478a.924.924,0,0,1-.712-.337l-2.362-2.887a.931.931,0,1,1,1.425-1.2l2.363,2.887a.942.942,0,0,1-.113,1.313A.919.919,0,0,1,244.916,225.478Z" transform="translate(-241.625 -220.725)"/></g><g transform="translate(79.928 87.428)"><path class="a" d="M214.851,238.751a.891.891,0,0,1-.9-.75l-.788-3.712a.968.968,0,0,1,.712-1.125.949.949,0,0,1,1.125.712l.788,3.713a.968.968,0,0,1-.712,1.125A.476.476,0,0,1,214.851,238.751Z" transform="translate(-213.142 -233.142)"/></g><g transform="translate(69.15 88.387)"><path class="a" d="M184.4,235.7" transform="translate(-184.4 -235.7)"/></g><g transform="translate(46.331 74.081)"><path class="a" d="M124.505,201.018a1,1,0,0,1-.863-.525.914.914,0,0,1,.45-1.238l3.375-1.613a.931.931,0,0,1,.787,1.688l-3.375,1.612A.562.562,0,0,1,124.505,201.018Z" transform="translate(-123.548 -197.548)"/></g><g transform="translate(55.16 82.76)"><path class="a" d="M148.033,225.458a.938.938,0,0,1-.713-1.538l2.363-2.887a.931.931,0,1,1,1.425,1.2l-2.363,2.887A.824.824,0,0,1,148.033,225.458Z" transform="translate(-147.092 -220.692)"/></g><g transform="translate(67.441 87.428)"><path class="a" d="M180.764,238.751a.281.281,0,0,1-.187-.038.949.949,0,0,1-.712-1.125l.788-3.713a.942.942,0,0,1,1.837.413L181.7,238A.96.96,0,0,1,180.764,238.751Z" transform="translate(-179.842 -233.142)"/></g><g transform="translate(60.273 59.944)"><path class="a" d="M189.33,165.419a1.155,1.155,0,0,1-.488-.112c-8.213-4.8-18.937-4.838-26.7,0a.926.926,0,1,1-.975-1.575c8.325-5.175,19.875-5.175,28.65,0a.925.925,0,0,1,.338,1.275A1,1,0,0,1,189.33,165.419Z" transform="translate(-160.728 -159.85)"/></g></g></g></svg>
